icon-svg/rain-barrel.svg

<svg xmlns="http://www.w3.org/2000/svg" fill="#44739e" viewBox="0 0 24 24"><path d="M16.92 2.274a11.1 11.1 0 0 0-1.155-.143C14.758 2.046 13.421 2 12 2s-2.758.046-3.764.131a11.1 11.1 0 0 0-1.156.143c-.28.056-.555.128-.555.341a.24.24 0 0 0 .011.067l.081.916h.016c.215.259 2.6.463 5.423.463 2.959 0 5.359-.289 5.359-.566l.039-.789a.21.21 0 0 0 .021-.091c0-.215-.275-.285-.555-.341M12 2.891a31.2 31.2 0 0 1-4.888-.273A31.4 31.4 0 0 1 12 2.346a31.4 31.4 0 0 1 4.889.272A31.25 31.25 0 0 1 12 2.891m3.428 4.87a32.2 32.2 0 0 1-3.449.163 32.2 32.2 0 0 1-3.449-.163 7.9 7.9 0 0 1-1.072-.181 3 3 0 0 1-.167-.051 74.3 74.3 0 0 0 1.095 9.415.84.84 0 0 1 .123.1c.016.014.042.039.049.044a6.48 6.48 0 0 0 3.56.694 9.37 9.37 0 0 0 3.322-.692l.1-.108c.52-2.773.875-6.648 1.082-9.44-.037.012-.077.024-.121.036a7.9 7.9 0 0 1-1.073.183M12 15.693a.265.265 0 0 0-.264.264v.389a.412.412 0 1 1 .527-.022v-.367a.264.264 0 0 0-.263-.264m-.117 1.184v-.92a.117.117 0 0 1 .234 0v.92a.117.117 0 0 1-.234 0m4.803-9.945V7.2l-.014.007a4.65 4.65 0 0 1-1.422.278c-.892.093-2.051.144-3.263.144s-2.372-.056-3.264-.149a4.7 4.7 0 0 1-1.416-.28h-.055l-.019-.247c-.124.062-.184.135-.184.223 0 .173.23.258.455.318a7.5 7.5 0 0 0 1.05.178 31.9 31.9 0 0 0 3.433.162 31.9 31.9 0 0 0 3.432-.162A7.6 7.6 0 0 0 16.47 7.5c.225-.06.455-.145.455-.318 0-.103-.076-.182-.239-.25m-.78 13.759a.143.143 0 0 1-.049-.108v-.4a.14.14 0 0 0-.018-.069l-.12-.219a.13.13 0 0 1-.016-.05l-.267-2.09a.15.15 0 0 0-.009-.036l-.109-.261a9.91 9.91 0 0 1-3.166.617c-.145.006-.288.009-.428.009a6.52 6.52 0 0 1-2.994-.614l-.071.193a.2.2 0 0 0-.008.031l-.277 2.159a.137.137 0 0 1-.043.085l-.129.123a.14.14 0 0 0-.044.094l-.039.61-.053-.008-.009.182a.2.2 0 0 0 0 .021v.036c.007.055.013.14.066.152.527.82 5.981 1.4 7.815.025l.058-.1v-.227a.144.144 0 0 0-.05-.108zm.855-14.481v.262l-.013.007a4.71 4.71 0 0 1-1.436.278c-.9.093-2.07.145-3.295.145s-2.394-.052-3.294-.145a4.87 4.87 0 0 1-1.431-.275h-.054l-.02-.248c-.125.062-.186.135-.186.223 0 .173.232.258.459.319a7.9 7.9 0 0 0 1.061.177 32.5 32.5 0 0 0 3.465.162 32.5 32.5 0 0 0 3.466-.162 7.8 7.8 0 0 0 1.06-.177c.228-.061.46-.146.46-.319-.003-.101-.077-.18-.242-.247m.073-.642v.263l-.014.007a4.86 4.86 0 0 1-1.453.277c-.912.094-2.1.145-3.336.145s-2.425-.051-3.337-.145a4.92 4.92 0 0 1-1.448-.275h-.055l-.02-.247c-.128.061-.19.135-.19.223 0 .172.236.257.466.318a7.9 7.9 0 0 0 1.074.178 33.6 33.6 0 0 0 3.51.162 33.6 33.6 0 0 0 3.509-.162 7.9 7.9 0 0 0 1.074-.178c.23-.061.466-.146.466-.318 0-.101-.08-.181-.246-.248M7.3 6.823l.02.277h.021a4.63 4.63 0 0 0 1.4.272c.89.094 2.047.145 3.258.145s2.369-.051 3.259-.145a4.8 4.8 0 0 0 1.401-.272v-.3l.033.012a.9.9 0 0 1 .107.048l.008-.122a1.7 1.7 0 0 1-.251.084A7.8 7.8 0 0 1 15.488 7a32.6 32.6 0 0 1-3.471.162A32.6 32.6 0 0 1 8.546 7a7.8 7.8 0 0 1-1.067-.179 1.48 1.48 0 0 1-.3-.11c0 .055.007.111.01.168a.8.8 0 0 1 .083-.044Zm9.55-.713c-.035.014-.073.027-.11.039h.005a.8.8 0 0 1 .1.044zm-9.636-.59.022.271h.027a4.79 4.79 0 0 0 1.437.276c.91.093 2.093.144 3.332.144s2.421-.051 3.331-.144a5.1 5.1 0 0 0 1.422-.267v-.3l.033.012.069.028c.057-.915.085-1.476.085-1.476a40.82 40.82 0 0 1-9.925 0s.019.574.065 1.507a1 1 0 0 1 .07-.034Zm.047.641.022.272H7.3a4.75 4.75 0 0 0 1.419.272c.9.093 2.067.145 3.289.145s2.391-.052 3.29-.145a4.9 4.9 0 0 0 1.4-.266v-.282a1.2 1.2 0 0 1-.086.024 7.8 7.8 0 0 1-1.081.179 33.4 33.4 0 0 1-3.514.163 33.4 33.4 0 0 1-3.501-.163 7.9 7.9 0 0 1-1.082-.179 1.53 1.53 0 0 1-.295-.1l.007.141a.8.8 0 0 1 .084-.043Z"/></svg>

<?xml version="1.0" encoding="UTF-8"?>
<svg width="24px" fill="#44739e" height="24px" viewBox="0 0 24 24" version="1.1" xmlns="http://www.w3.org/2000/svg" xmlns:xlink="http://www.w3.org/1999/xlink">
            <path d="M 16.92,2.274 A 11.093,11.093 0 0 0 15.765,2.131 C 14.758,2.046 13.421,2 12,2 10.579,2 9.242,2.046 8.236,2.131 A 11.119,11.119 0 0 0 7.08,2.274 C 6.8,2.33 6.525,2.402 6.525,2.615 a 0.241,0.241 0 0 0 0.011,0.067 l 0.081,0.916 h 0.016 c 0.215,0.259 2.6,0.463 5.423,0.463 2.959,0 5.359,-0.289 5.359,-0.566 L 17.454,2.706 A 0.207,0.207 0 0 0 17.475,2.615 C 17.475,2.4 17.2,2.33 16.92,2.274 Z M 12,2.891 A 31.222,31.222 0 0 1 7.112,2.618 31.4,31.4 0 0 1 12,2.346 31.43,31.43 0 0 1 16.889,2.618 31.249,31.249 0 0 1 12,2.891 Z m 3.428,4.87 A 32.192,32.192 0 0 1 11.979,7.924 32.165,32.165 0 0 1 8.53,7.761 7.865,7.865 0 0 1 7.458,7.58 C 7.394,7.562 7.34,7.546 7.291,7.529 a 74.325,74.325 0 0 0 1.095,9.415 0.839,0.839 0 0 1 0.123,0.1 c 0.016,0.014 0.042,0.039 0.049,0.044 a 6.482,6.482 0 0 0 3.56,0.694 9.372,9.372 0 0 0 3.322,-0.692 l 0.1,-0.108 c 0.52,-2.773 0.875,-6.648 1.082,-9.44 -0.037,0.012 -0.077,0.024 -0.121,0.036 A 7.865,7.865 0 0 1 15.428,7.761 Z M 12,15.693 a 0.265,0.265 0 0 0 -0.264,0.264 v 0.389 a 0.412,0.412 0 1 1 0.527,-0.022 V 15.957 A 0.264,0.264 0 0 0 12,15.693 Z m -0.117,1.184 v -0.92 a 0.117,0.117 0 0 1 0.234,0 v 0.92 a 0.117,0.117 0 0 1 -0.234,0 z M 16.686,6.932 V 7.2 L 16.672,7.207 A 4.648,4.648 0 0 1 15.25,7.485 C 14.358,7.578 13.199,7.629 11.987,7.629 10.775,7.629 9.615,7.573 8.723,7.48 A 4.7,4.7 0 0 1 7.307,7.2 H 7.252 L 7.233,6.953 C 7.109,7.015 7.049,7.088 7.049,7.176 c 0,0.173 0.23,0.258 0.455,0.318 A 7.522,7.522 0 0 0 8.554,7.672 31.9,31.9 0 0 0 11.987,7.834 31.866,31.866 0 0 0 15.419,7.672 7.568,7.568 0 0 0 16.47,7.5 C 16.695,7.44 16.925,7.355 16.925,7.182 16.925,7.079 16.849,7 16.686,6.932 Z m -0.78,13.759 a 0.143,0.143 0 0 1 -0.049,-0.108 v -0.4 a 0.139,0.139 0 0 0 -0.018,-0.069 l -0.12,-0.219 a 0.133,0.133 0 0 1 -0.016,-0.05 l -0.267,-2.09 a 0.146,0.146 0 0 0 -0.009,-0.036 l -0.109,-0.261 a 9.915,9.915 0 0 1 -3.166,0.617 c -0.145,0.006 -0.288,0.009 -0.428,0.009 A 6.519,6.519 0 0 1 8.73,17.47 l -0.071,0.193 a 0.177,0.177 0 0 0 -0.008,0.031 l -0.277,2.159 a 0.137,0.137 0 0 1 -0.043,0.085 l -0.129,0.123 a 0.139,0.139 0 0 0 -0.044,0.094 l -0.039,0.61 -0.053,-0.008 -0.009,0.182 a 0.147,0.147 0 0 0 0,0.021 v 0.036 c 0.007,0.055 0.013,0.14 0.066,0.152 0.527,0.82 5.981,1.4 7.815,0.025 v 0 l 0.058,-0.1 v -0.007 -0.22 a 0.144,0.144 0 0 0 -0.05,-0.108 z M 16.761,6.21 v 0.262 l -0.013,0.007 a 4.71,4.71 0 0 1 -1.436,0.278 c -0.9,0.093 -2.07,0.145 -3.295,0.145 -1.225,0 -2.394,-0.052 -3.294,-0.145 A 4.87,4.87 0 0 1 7.292,6.482 H 7.238 L 7.218,6.234 C 7.093,6.296 7.032,6.369 7.032,6.457 c 0,0.173 0.232,0.258 0.459,0.319 a 7.887,7.887 0 0 0 1.061,0.177 32.488,32.488 0 0 0 3.465,0.162 32.508,32.508 0 0 0 3.466,-0.162 7.84,7.84 0 0 0 1.06,-0.177 C 16.771,6.715 17.003,6.63 17.003,6.457 17,6.356 16.926,6.277 16.761,6.21 Z M 16.834,5.568 V 5.831 L 16.82,5.838 A 4.863,4.863 0 0 1 15.367,6.115 C 14.455,6.209 13.267,6.26 12.031,6.26 10.795,6.26 9.606,6.209 8.694,6.115 A 4.918,4.918 0 0 1 7.246,5.84 H 7.191 L 7.171,5.593 c -0.128,0.061 -0.19,0.135 -0.19,0.223 0,0.172 0.236,0.257 0.466,0.318 a 7.871,7.871 0 0 0 1.074,0.178 33.592,33.592 0 0 0 3.51,0.162 33.585,33.585 0 0 0 3.509,-0.162 7.871,7.871 0 0 0 1.074,-0.178 C 16.844,6.073 17.08,5.988 17.08,5.816 17.08,5.715 17,5.635 16.834,5.568 Z M 7.3,6.823 7.32,7.1 h 0.021 v 0 a 4.633,4.633 0 0 0 1.4,0.272 c 0.89,0.094 2.047,0.145 3.258,0.145 1.211,0 2.369,-0.051 3.259,-0.145 A 4.8,4.8 0 0 0 16.659,7.1 V 6.8 l 0.033,0.012 A 0.9,0.9 0 0 1 16.799,6.86 L 16.807,6.738 A 1.719,1.719 0 0 1 16.556,6.822 7.784,7.784 0 0 1 15.488,7 32.6,32.6 0 0 1 12.017,7.162 32.609,32.609 0 0 1 8.546,7 7.793,7.793 0 0 1 7.479,6.821 1.481,1.481 0 0 1 7.179,6.711 c 0,0.055 0.007,0.111 0.01,0.168 A 0.8,0.8 0 0 1 7.272,6.835 Z M 16.85,6.11 c -0.035,0.014 -0.073,0.027 -0.11,0.039 h 0.005 a 0.837,0.837 0 0 1 0.1,0.044 z M 7.214,5.52 7.236,5.791 H 7.257 7.263 A 4.789,4.789 0 0 0 8.7,6.067 c 0.91,0.093 2.093,0.144 3.332,0.144 1.239,0 2.421,-0.051 3.331,-0.144 A 5.1,5.1 0 0 0 16.785,5.8 V 5.5 l 0.033,0.012 0.069,0.028 c 0.057,-0.915 0.085,-1.476 0.085,-1.476 a 40.816,40.816 0 0 1 -9.925,0 c 0,0 0.019,0.574 0.065,1.507 C 7.134,5.559 7.157,5.548 7.182,5.537 Z M 7.261,6.161 7.283,6.433 H 7.3 v 0 a 4.75,4.75 0 0 0 1.419,0.272 c 0.9,0.093 2.067,0.145 3.289,0.145 1.222,0 2.391,-0.052 3.29,-0.145 a 4.906,4.906 0 0 0 1.4,-0.266 V 6.157 C 16.67,6.166 16.641,6.174 16.612,6.181 A 7.8,7.8 0 0 1 15.531,6.36 33.386,33.386 0 0 1 12.017,6.523 33.407,33.407 0 0 1 8.516,6.36 7.87,7.87 0 0 1 7.434,6.181 1.531,1.531 0 0 1 7.139,6.081 L 7.146,6.222 A 0.818,0.818 0 0 1 7.23,6.179 Z"/>

</svg>
